X:1037
T:Square Da Mizzen
R:reel
O:Shetland
Z:id:hn-reel-1037
M:C|
L:1/8
K:D
ABAF B3B | ABAF E2D2 | A2AF B2dA | (3Bcd AF D3A :|
|: d2fd edfd | efge dBAB | d2fd edfd |[M:3/2] efge dBAF D3A :| 

